X: 15211
T: Ginantonic
R: mazurka
M: 3/4
K: Eminor
E>G B>G E>G|E/F/G c>G E>G|D>F A>F D>F|B>G A>F G>F|
E>G B>G E>G|E/F/G c>G E>G|D>F A>F D>F|B>G A>F E2:|
|:e>d B>A B>e|f>d B>A B>f|g>B f>B e>B|e>f g>d A2|
e>d B>A B>e|f>d B>A B>f|g>B f>B e>B|g>B f>B e2:|

